svg/u1f682.svg

<svg viewBox="0 0 128 128" xmlns="http://www.w3.org/2000/svg">
  <path d="M22.73,99.53c-2.35,0.02-4.53,1.21-5.82,3.17L4.83,121.08l0.09,0c-1.08,0.02-1.95,0.89-1.95,1.98 v0.02c0,0.41,0.33,0.74,0.74,0.74H21.7c0.41,0,0.74-0.33,0.74-0.74v-0.02c0-0.96-0.68-1.76-1.58-1.94l1.85-11.42L22.73,99.53z" fill="#F44336"/>
  <path d="M43.37,22.2c2.21,0.02,4.07,1.73,6.23,2.16c8.22,1.65,10.2-2.24,12.98-3.09 c2.78-0.85,6.78,2.77,13.61-0.29c3.55-1.59,4.84-6.45,3.25-9.86c-0.52-1.12-3.57-7.53-14.37-5.9c-0.82,0.12-1.62,0.34-2.42,0.53 c-5.66,1.35-8.31-2.77-18.82-0.97c-17.2,2.94-16.74,20.06-15.32,23.04C28.51,27.82,34.24,22.1,43.37,22.2z" opacity="0.85" fill="#BDBDBD"/>
  <path d="M27.03,8.89c3.79-3.62,10.53-4.49,14.81-1.42c0.63,0.45,1.23,1,2.01,1.19 c0.75,0.19,1.55,0.02,2.32-0.1c2.91-0.43,6.18,0.12,8.13,2.18c1.95,2.06,1.78,5.71-0.7,7.2c-4.81,2.88-8.63-1.15-16.84,1.6 c-4.91,1.65-8.37,6-9.69,10.72C27.07,30.27,18.31,17.22,27.03,8.89z" opacity="0.65" fill="#E0E0E0"/>
  <path d="M44.98,21.79c0-0.53-0.43-0.96-0.96-0.96H17.73c-0.53,0-0.96,0.43-0.96,0.96v5.46 c2.11,7.89,7.2,15.44,8.17,16.83v19.59H36.8V44.09c0.94-1.3,5.75-8.18,8.17-16.84V21.79z" fill="#424242"/>
  <polygon points="121.87,85.44 115.95,87.73 22.7,87.73 22.7,109.7 33.16,109.7 33.16,117.66 48.44,117.66 48.44,109.7 121.87,109.7 " fill="#424242"/>
  <path d="M39.86,89.48l-17.16-0.01c0,0,0.8-6.26,0.8-13.75S22.65,61.9,22.65,61.9h16.77 c0,0,0.94,4.02,0.94,13.42S39.86,89.48,39.86,89.48z" fill="#424242"/>
  <path d="M54.4,98.45h-2.94c-0.1-2.28-0.38-3.51-0.74-4.23c-0.32-0.62-0.9-1.1-1.6-1.1 c-0.58,0-16.54,7.03-16.54,7.03c0,3.88,0.71,7.03,1.59,7.03c0,0,13,0,14.59,0c2.21,0,2.69-2.25,2.74-5.7h2.36l19.67,8.31l6.32,0.04 L54.4,98.45z" fill="#212121"/>
  <polygon points="103.02,89.48 70.05,89.48 69.59,61.9 78.21,59.23 77.99,74.41 103.74,74.41 " fill="#606060"/>
  <path d="M39.31,89.48l29.2,0c0.67-3.44,1.34-8.24,1.34-13.72c0-11.06-1.75-13.87-1.75-13.87H53.11H39.1 c0,0,0.91,6.35,0.91,13.84C40.01,83.23,39.31,89.48,39.31,89.48z" fill="#00796B"/>
  <g>
    <path d="M50.03,112.16c2.16,0,3.92,1.76,3.92,3.92S52.19,120,50.03,120s-3.92-1.76-3.92-3.92 S47.87,112.16,50.03,112.16 M50.03,108.16c-4.37,0-7.92,3.55-7.92,7.92s3.55,7.92,7.92,7.92c4.37,0,7.92-3.55,7.92-7.92 S54.4,108.16,50.03,108.16L50.03,108.16z" fill="#546E7A"/>
    <circle cx="50.03" cy="116.08" r="4.58" fill="#F44336"/>
  </g>
  <g>
    <path d="M31.57,112.16c2.16,0,3.92,1.76,3.92,3.92S33.73,120,31.57,120s-3.92-1.76-3.92-3.92 S29.41,112.16,31.57,112.16 M31.57,108.16c-4.37,0-7.92,3.55-7.92,7.92S27.2,124,31.57,124s7.92-3.55,7.92-7.92 S35.95,108.16,31.57,108.16L31.57,108.16z" fill="#546E7A"/>
    <circle cx="31.57" cy="116.08" r="4.58" fill="#F44336"/>
  </g>
  <path d="M36.82,104.98" fill="none" stroke="#607D8B" stroke-width="3" stroke-miterlimit="10"/>
  <path d="M77.97,38.94v44.67h44.23V38.94H77.97z M117.67,77.97H82.54V43.85h35.12V77.97z" fill="#C62828"/>
  <path d="M29.45,27.85H19.28V22.4c0-0.53,0.43-0.96,0.96-0.96h8.25c0.53,0,0.96,0.43,0.96,0.96V27.85z" fill="#2F7889"/>
  <rect height="17.79" fill="#2F7889" width="5.62" x="26.69" y="44.1"/>
  <path d="M24.48,67.83c0.17,1.38,0.4,3.52,0.47,5.79c0.02,0.75,0.63,1.34,1.38,1.34h10.84 c0.78,0,1.41-0.65,1.39-1.43c-0.07-3.26-0.14-5.16-0.4-6.2c-0.16-0.62-0.71-1.06-1.35-1.06H25.85 C25.02,66.28,24.37,67.01,24.48,67.83z" fill="#2F7889"/>
  <path d="M41.61,67.83c0.13,1.38,0.3,3.52,0.36,5.79c0.02,0.75,0.49,1.34,1.06,1.34h8.32 c0.6,0,1.08-0.65,1.07-1.43c-0.06-3.26-0.3-5.16-0.5-6.2c-0.12-0.62-0.54-1.06-1.03-1.06h-8.22C42.03,66.28,41.53,67.01,41.61,67.83 z" fill="#4CA854"/>
  <path d="M57.01,67.83c0.13,1.38,0.3,3.52,0.36,5.79c0.02,0.75,0.49,1.34,1.06,1.34h8.32 c0.6,0,1.08-0.65,1.07-1.43c-0.06-3.26-0.3-5.16-0.5-6.2c-0.12-0.62-0.54-1.06-1.03-1.06h-8.22C57.43,66.28,56.93,67.01,57.01,67.83 z" fill="#4CA854"/>
  <path d="M80.62,44.07V76.9c0,0.97,0.79,1.76,1.77,1.76h35.68c0.97,0,1.76-0.79,1.76-1.76V44.07 c0-0.97-0.79-1.76-1.76-1.76H82.38C81.41,42.31,80.62,43.1,80.62,44.07z M108.19,69.54c0,0.52-0.47,0.94-1.06,0.94H93.31 c-0.58,0-1.06-0.42-1.06-0.94V52.45c0.66-0.88,3.1-3.61,7.97-3.61c4.88,0,7.31,2.73,7.97,3.61V69.54z" fill="#F44336"/>
  <g>
    <polygon points="19.26,104.71 18.19,104.71 8.66,121.08 10.96,121.08 " fill="#424242"/>
    <polygon points="21.63,104.68 20.58,104.68 14.99,121.08 17.13,121.08 " fill="#424242"/>
  </g>
  <path d="M56.13,75.96c0-7.19-1.08-14.07-1.08-14.07h-2.04c0,0,1.11,6.17,1.11,14.07 c0,7.97-0.92,13.52-0.92,13.52h2.01C55.21,89.48,56.13,83.49,56.13,75.96z" fill="#E2A610"/>
  <path d="M70.94,75.96c0-7.19-1.08-14.07-1.08-14.07h-2.04c0,0,1.11,6.17,1.11,14.07 c0,7.97-0.88,13.52-0.88,13.52h2.01C70.05,89.48,70.94,83.49,70.94,75.96z" fill="#E2A610"/>
  <path d="M107.57,98.4L107.57,98.4c4.82,0,9.11,3.06,10.68,7.62c0.98,2.85,0.8,5.92-0.52,8.63 c-1.32,2.71-3.62,4.75-6.47,5.74c-1.2,0.41-2.44,0.62-3.69,0.62c-4.82,0-9.11-3.06-10.68-7.62c-0.98-2.85-0.8-5.92,0.52-8.63 c1.32-2.71,3.62-4.75,6.47-5.74C105.08,98.6,106.32,98.4,107.57,98.4 M107.57,95.4c-1.55,0-3.12,0.25-4.67,0.79 c-7.46,2.58-11.43,10.72-8.85,18.18c2.04,5.92,7.59,9.64,13.52,9.64c1.55,0,3.12-0.25,4.67-0.79c7.46-2.58,11.43-10.72,8.85-18.18 C119.04,99.11,113.5,95.4,107.57,95.4L107.57,95.4z" fill="#546E7A"/>
  <path d="M107.57,100.19L107.57,100.19c4.05,0,7.66,2.58,8.99,6.41c0.83,2.4,0.67,4.98-0.44,7.26 c-1.11,2.28-3.05,4-5.45,4.83c-1.01,0.35-2.05,0.52-3.1,0.52c-4.05,0-7.66-2.58-8.99-6.41c-0.83-2.4-0.67-4.98,0.44-7.26 c1.11-2.28,3.05-4,5.45-4.83C105.47,100.36,106.52,100.19,107.57,100.19 M107.57,98.19c-1.25,0-2.51,0.2-3.76,0.63 c-6.01,2.07-9.2,8.62-7.12,14.63c1.64,4.76,6.1,7.76,10.88,7.76c1.25,0,2.51-0.2,3.76-0.63c6.01-2.07,9.2-8.62,7.12-14.63 C116.8,101.18,112.34,98.19,107.57,98.19L107.57,98.19z" fill="#F44336"/>
  <g>
    <line fill="none" stroke="#F44336" stroke-width="3" stroke-miterlimit="10" x1="117.65" x2="97.48" y1="109.7" y2="109.7"/>
    <line fill="none" stroke="#F44336" stroke-width="3" stroke-miterlimit="10" x1="102.52" x2="112.61" y1="100.96" y2="118.43"/>
    <line fill="none" stroke="#F44336" stroke-width="3" stroke-miterlimit="10" x1="102.52" x2="112.61" y1="118.43" y2="100.96"/>
  </g>
  <path d="M76.48,98.4L76.48,98.4c4.82,0,9.11,3.06,10.68,7.62c0.98,2.85,0.8,5.92-0.52,8.63 c-1.32,2.71-3.62,4.75-6.47,5.74c-1.2,0.41-2.44,0.62-3.69,0.62c-4.82,0-9.11-3.06-10.68-7.62c-0.98-2.85-0.8-5.92,0.52-8.63 c1.32-2.71,3.62-4.75,6.47-5.74C73.99,98.6,75.23,98.4,76.48,98.4 M76.48,95.4c-1.55,0-3.12,0.25-4.67,0.79 c-7.46,2.58-11.43,10.72-8.85,18.18c2.04,5.92,7.59,9.64,13.52,9.64c1.55,0,3.12-0.25,4.67-0.79c7.46-2.58,11.43-10.72,8.85-18.18 C87.96,99.11,82.41,95.4,76.48,95.4L76.48,95.4z" fill="#546E7A"/>
  <path d="M76.48,100.19L76.48,100.19c4.05,0,7.66,2.58,8.99,6.41c0.83,2.4,0.67,4.98-0.44,7.26 c-1.11,2.28-3.05,4-5.45,4.83c-1.01,0.35-2.05,0.52-3.1,0.52c-4.05,0-7.66-2.58-8.99-6.41c-0.83-2.4-0.67-4.98,0.44-7.26 c1.11-2.28,3.05-4,5.45-4.83C74.39,100.36,75.43,100.19,76.48,100.19 M76.48,98.19c-1.25,0-2.51,0.2-3.76,0.63 c-6.01,2.07-9.2,8.62-7.12,14.63c1.64,4.76,6.1,7.76,10.88,7.76c1.25,0,2.51-0.2,3.76-0.63c6.01-2.07,9.2-8.62,7.12-14.63 C85.72,101.18,81.26,98.19,76.48,98.19L76.48,98.19z" fill="#F44336"/>
  <g>
    <line fill="none" stroke="#F44336" stroke-width="3" stroke-miterlimit="10" x1="86.57" x2="66.4" y1="109.7" y2="109.7"/>
    <line fill="none" stroke="#F44336" stroke-width="3" stroke-miterlimit="10" x1="71.44" x2="81.53" y1="100.96" y2="118.43"/>
    <line fill="none" stroke="#F44336" stroke-width="3" stroke-miterlimit="10" x1="71.44" x2="81.53" y1="118.43" y2="100.96"/>
  </g>
  <path d="M119.58,89.56H80.6c-1.45,0-2.63-1.18-2.63-2.63v-3.31h44.23v3.31 C122.21,88.38,121.03,89.56,119.58,89.56z" fill="#E2A610"/>
  <line fill="none" stroke="#FFCA28" stroke-width="3" stroke-linecap="round" stroke-miterlimit="10" x1="77.97" x2="122.21" y1="82.62" y2="82.62"/>
  <line fill="none" stroke="#E2A610" stroke-width="3" stroke-linecap="round" stroke-miterlimit="10" x1="56.12" x2="34.17" y1="98.45" y2="98.45"/>
  <polyline points="111.14,109.7 80.98,109.7 53.3,97.57 " fill="none" stroke="#E2A610" stroke-width="3" stroke-linecap="round" stroke-miterlimit="10"/>
  <path d="M22.61,61.9c0,0-2.86,4.22-2.86,13.83s2.95,13.75,2.95,13.75s0.81-2.5,0.81-12.3 S22.61,61.9,22.61,61.9z" fill="#616161"/>
  <path d="M17.47,73.25h2.97c0,0,0.38,0.25,0.38,2.44s-0.38,2.44-0.38,2.44h-2.97V73.25z" fill="#424242"/>
  <path d="M18.73,75.69c0,2.39,0.01,4.33-0.67,4.33c-0.68,0-1.79-1.94-1.79-4.33s1.11-4.33,1.79-4.33 C18.74,71.36,18.73,73.3,18.73,75.69z" fill="#757575"/>
  <path d="M23.14,86.18c-0.22,2.05-0.45,3.3-0.45,3.3l16.61,0.01c0,0,0.17-1.06,0.32-3.14 c0.11-1.47-1.06-2.72-2.54-2.72h-11.1C24.52,83.62,23.29,84.72,23.14,86.18z" fill="#212121"/>
  <rect height="13.22" fill="#606060" width="15.35" x="33.13" y="92.36"/>
  <ellipse cx="48.48" cy="98.97" rx="1.55" ry="6.61" fill="#606060"/>
  <ellipse cx="33.13" cy="98.97" rx="1.55" ry="6.61" fill="#606060"/>
  <path d="M47.61,96.57H33.88c-0.52,0-0.88-0.47-0.79-0.98c0.15-0.86,0.3-1.49,0.78-1.88 c0.12-0.1,0.29-0.13,0.45-0.13h12.91c0.21,0,0.43,0.07,0.56,0.23c0.45,0.51,0.61,1.03,0.62,1.83 C48.41,96.19,48.11,96.57,47.61,96.57z" fill="#78909C"/>
  <polygon points="122.2,40.45 77.99,40.45 75.15,38.94 125.04,38.94 " fill="#004D40"/>
  <rect height="3.76" fill="#00796B" width="49.89" x="75.15" y="35.18"/>
  <path d="M108.19,69.54c0,0.52-0.47,0.94-1.06,0.94H93.31 c-0.58,0-1.06-0.42-1.06-0.94V52.45c0.66-0.88,3.1-3.61,7.97-3.61c4.88,0,7.31,2.73,7.97,3.61V69.54z" fill="none" stroke="#C62828" stroke-width="2" stroke-miterlimit="10"/>
</svg>

<svg viewBox="0 0 128 128" xmlns="http://www.w3.org/2000/svg">
  <defs/>
  <path d="M22.73,99.53 C20.38,99.55 18.2,100.74 16.91,102.7 L4.83,121.08 L4.92,121.08 C3.84,121.1 2.97,121.97 2.97,123.06 L2.97,123.08 C2.97,123.49 3.3,123.82 3.71,123.82 L21.7,123.82 C22.11,123.82 22.44,123.49 22.44,123.08 L22.44,123.06 C22.44,122.1 21.76,121.3 20.86,121.12 L22.71,109.7 L22.73,99.53 Z" fill="#F44336"/>
  <path d="M43.37,22.2 C45.58,22.22 47.44,23.93 49.6,24.36 C57.82,26.01 59.8,22.12 62.58,21.27 C65.36,20.42 69.36,24.04 76.19,20.98 C79.74,19.39 81.03,14.53 79.44,11.12 C78.92,10 75.87,3.59 65.07,5.22 C64.25,5.34 63.45,5.56 62.65,5.75 C56.99,7.1 54.34,2.98 43.83,4.78 C26.63,7.72 27.09,24.84 28.51,27.82 C28.51,27.82 34.24,22.1 43.37,22.2 Z" fill="#BDBDBD" opacity="0.85"/>
  <path d="M27.03,8.89 C30.82,5.27 37.56,4.4 41.84,7.47 C42.47,7.92 43.07,8.47 43.85,8.66 C44.6,8.85 45.4,8.68 46.17,8.56 C49.08,8.13 52.35,8.68 54.3,10.74 C56.25,12.8 56.08,16.45 53.6,17.94 C48.79,20.82 44.97,16.79 36.76,19.54 C31.85,21.19 28.39,25.54 27.07,30.26 C27.07,30.27 18.31,17.22 27.03,8.89 Z" fill="#E0E0E0" opacity="0.65"/>
  <path d="M44.98,21.79 C44.98,21.26 44.55,20.83 44.02,20.83 L17.73,20.83 C17.2,20.83 16.77,21.26 16.77,21.79 L16.77,27.25 C18.88,35.14 23.97,42.69 24.94,44.08 L24.94,63.67 L36.8,63.67 L36.8,44.09 C37.74,42.79 42.55,35.91 44.97,27.25 L44.97,21.79 Z" fill="#424242"/>
  <path d="M121.87,85.44 L115.95,87.73 L22.7,87.73 L22.7,109.7 L33.16,109.7 L33.16,117.66 L48.44,117.66 L48.44,109.7 L121.87,109.7 Z" fill="#424242"/>
  <path d="M39.86,89.48 L22.7,89.47 C22.7,89.47 23.5,83.21 23.5,75.72 C23.5,68.23 22.65,61.9 22.65,61.9 L39.42,61.9 C39.42,61.9 40.36,65.92 40.36,75.32 C40.36,84.72 39.86,89.48 39.86,89.48 Z" fill="#424242"/>
  <path d="M54.4,98.45 L51.46,98.45 C51.36,96.17 51.08,94.94 50.72,94.22 C50.4,93.6 49.82,93.12 49.12,93.12 C48.54,93.12 32.58,100.15 32.58,100.15 C32.58,104.03 33.29,107.18 34.17,107.18 C34.17,107.18 47.17,107.18 48.76,107.18 C50.97,107.18 51.45,104.93 51.5,101.48 L53.86,101.48 L73.53,109.79 L79.85,109.83 L54.4,98.45 Z" fill="#212121"/>
  <path d="M103.02,89.48 L70.05,89.48 L69.59,61.9 L78.21,59.23 L77.99,74.41 L103.74,74.41 Z" fill="#606060"/>
  <path d="M39.31,89.48 L68.51,89.48 C69.18,86.04 69.85,81.24 69.85,75.76 C69.85,64.7 68.1,61.89 68.1,61.89 L53.11,61.89 L39.1,61.89 C39.1,61.89 40.01,68.24 40.01,75.73 C40.01,83.23 39.31,89.48 39.31,89.48 Z" fill="#00796B"/>
  <path d="M50.03,112.16 C52.19,112.16 53.95,113.92 53.95,116.08 C53.95,118.24 52.19,120 50.03,120 C47.87,120 46.11,118.24 46.11,116.08 C46.11,113.92 47.87,112.16 50.03,112.16 M50.03,108.16 C45.66,108.16 42.11,111.71 42.11,116.08 C42.11,120.45 45.66,124 50.03,124 C54.4,124 57.95,120.45 57.95,116.08 C57.95,111.71 54.4,108.16 50.03,108.16 L50.03,108.16 Z" fill="#546E7A"/>
  <path d="M54.61,116.08 A4.58 4.58 0 1 1 45.45,116.08 A4.58 4.58 0 1 1 54.61,116.08 Z" fill="#F44336"/>
  <path d="M31.57,112.16 C33.73,112.16 35.49,113.92 35.49,116.08 C35.49,118.24 33.73,120 31.57,120 C29.41,120 27.65,118.24 27.65,116.08 C27.65,113.92 29.41,112.16 31.57,112.16 M31.57,108.16 C27.2,108.16 23.65,111.71 23.65,116.08 C23.65,120.45 27.2,124 31.57,124 C35.94,124 39.49,120.45 39.49,116.08 C39.49,111.71 35.95,108.16 31.57,108.16 L31.57,108.16 Z" fill="#546E7A"/>
  <path d="M36.15,116.08 A4.58 4.58 0 1 1 26.99,116.08 A4.58 4.58 0 1 1 36.15,116.08 Z" fill="#F44336"/>
  <path d="M77.97,38.94 L77.97,83.61 L122.2,83.61 L122.2,38.94 L77.97,38.94 Z M117.67,77.97 L82.54,77.97 L82.54,43.85 L117.66,43.85 L117.66,77.97 Z" fill="#C62828"/>
  <path d="M29.45,27.85 L19.28,27.85 L19.28,22.4 C19.28,21.87 19.71,21.44 20.24,21.44 L28.49,21.44 C29.02,21.44 29.45,21.87 29.45,22.4 L29.45,27.85 Z" fill="#2F7889"/>
  <path d="M26.69,44.1 L32.31,44.1 L32.31,61.89 L26.69,61.89 L26.69,44.1 Z" fill="#2F7889"/>
  <path d="M24.48,67.83 C24.65,69.21 24.88,71.35 24.95,73.62 C24.97,74.37 25.58,74.96 26.33,74.96 L37.17,74.96 C37.95,74.96 38.58,74.31 38.56,73.53 C38.49,70.27 38.42,68.37 38.16,67.33 C38,66.71 37.45,66.27 36.81,66.27 L25.85,66.27 C25.02,66.28 24.37,67.01 24.48,67.83 Z" fill="#2F7889"/>
  <path d="M41.61,67.83 C41.74,69.21 41.91,71.35 41.97,73.62 C41.99,74.37 42.46,74.96 43.03,74.96 L51.35,74.96 C51.95,74.96 52.43,74.31 52.42,73.53 C52.36,70.27 52.12,68.37 51.92,67.33 C51.8,66.71 51.38,66.27 50.89,66.27 L42.67,66.27 C42.03,66.28 41.53,67.01 41.61,67.83 Z" fill="#4CA854"/>
  <path d="M57.01,67.83 C57.14,69.21 57.31,71.35 57.37,73.62 C57.39,74.37 57.86,74.96 58.43,74.96 L66.75,74.96 C67.35,74.96 67.83,74.31 67.82,73.53 C67.76,70.27 67.52,68.37 67.32,67.33 C67.2,66.71 66.78,66.27 66.29,66.27 L58.07,66.27 C57.43,66.28 56.93,67.01 57.01,67.83 Z" fill="#4CA854"/>
  <path d="M80.62,44.07 L80.62,76.9 C80.62,77.87 81.41,78.66 82.39,78.66 L118.07,78.66 C119.04,78.66 119.83,77.87 119.83,76.9 L119.83,44.07 C119.83,43.1 119.04,42.31 118.07,42.31 L82.38,42.31 C81.41,42.31 80.62,43.1 80.62,44.07 Z M108.19,69.54 C108.19,70.06 107.72,70.48 107.13,70.48 L93.31,70.48 C92.73,70.48 92.25,70.06 92.25,69.54 L92.25,52.45 C92.91,51.57 95.35,48.84 100.22,48.84 C105.1,48.84 107.53,51.57 108.19,52.45 L108.19,69.54 Z" fill="#F44336"/>
  <path d="M19.26,104.71 L18.19,104.71 L8.66,121.08 L10.96,121.08 Z" fill="#424242"/>
  <path d="M21.63,104.68 L20.58,104.68 L14.99,121.08 L17.13,121.08 Z" fill="#424242"/>
  <path d="M56.13,75.96 C56.13,68.77 55.05,61.89 55.05,61.89 L53.01,61.89 C53.01,61.89 54.12,68.06 54.12,75.96 C54.12,83.93 53.2,89.48 53.2,89.48 L55.21,89.48 C55.21,89.48 56.13,83.49 56.13,75.96 Z" fill="#E2A610"/>
  <path d="M70.94,75.96 C70.94,68.77 69.86,61.89 69.86,61.89 L67.82,61.89 C67.82,61.89 68.93,68.06 68.93,75.96 C68.93,83.93 68.05,89.48 68.05,89.48 L70.06,89.48 C70.05,89.48 70.94,83.49 70.94,75.96 Z" fill="#E2A610"/>
  <path d="M107.57,98.4 L107.57,98.4 C112.39,98.4 116.68,101.46 118.25,106.02 C119.23,108.87 119.05,111.94 117.73,114.65 C116.41,117.36 114.11,119.4 111.26,120.39 C110.06,120.8 108.82,121.01 107.57,121.01 C102.75,121.01 98.46,117.95 96.89,113.39 C95.91,110.54 96.09,107.47 97.41,104.76 C98.73,102.05 101.03,100.01 103.88,99.02 C105.08,98.6 106.32,98.4 107.57,98.4 M107.57,95.4 C106.02,95.4 104.45,95.65 102.9,96.19 C95.44,98.77 91.47,106.91 94.05,114.37 C96.09,120.29 101.64,124.01 107.57,124.01 C109.12,124.01 110.69,123.76 112.24,123.22 C119.7,120.64 123.67,112.5 121.09,105.04 C119.04,99.11 113.5,95.4 107.57,95.4 L107.57,95.4 Z" fill="#546E7A"/>
  <path d="M107.57,100.19 L107.57,100.19 C111.62,100.19 115.23,102.77 116.56,106.6 C117.39,109 117.23,111.58 116.12,113.86 C115.01,116.14 113.07,117.86 110.67,118.69 C109.66,119.04 108.62,119.21 107.57,119.21 C103.52,119.21 99.91,116.63 98.58,112.8 C97.75,110.4 97.91,107.82 99.02,105.54 C100.13,103.26 102.07,101.54 104.47,100.71 C105.47,100.36 106.52,100.19 107.57,100.19 M107.57,98.19 C106.32,98.19 105.06,98.39 103.81,98.82 C97.8,100.89 94.61,107.44 96.69,113.45 C98.33,118.21 102.79,121.21 107.57,121.21 C108.82,121.21 110.08,121.01 111.33,120.58 C117.34,118.51 120.53,111.96 118.45,105.95 C116.8,101.18 112.34,98.19 107.57,98.19 L107.57,98.19 Z" fill="#F44336"/>
  <path d="M117.65,111.2 L97.48,111.2 L97.48,108.2 L117.65,108.2 L117.65,111.2 Z" fill="#F44336"/>
  <path d="M103.819,100.21 L113.909,117.68 L111.311,119.18 L101.221,101.71 L103.819,100.21 Z" fill="#F44336"/>
  <path d="M101.221,117.68 L111.311,100.21 L113.909,101.71 L103.819,119.18 L101.221,117.68 Z" fill="#F44336"/>
  <path d="M76.48,98.4 L76.48,98.4 C81.3,98.4 85.59,101.46 87.16,106.02 C88.14,108.87 87.96,111.94 86.64,114.65 C85.32,117.36 83.02,119.4 80.17,120.39 C78.97,120.8 77.73,121.01 76.48,121.01 C71.66,121.01 67.37,117.95 65.8,113.39 C64.82,110.54 65,107.47 66.32,104.76 C67.64,102.05 69.94,100.01 72.79,99.02 C73.99,98.6 75.23,98.4 76.48,98.4 M76.48,95.4 C74.93,95.4 73.36,95.65 71.81,96.19 C64.35,98.77 60.38,106.91 62.96,114.37 C65,120.29 70.55,124.01 76.48,124.01 C78.03,124.01 79.6,123.76 81.15,123.22 C88.61,120.64 92.58,112.5 90,105.04 C87.96,99.11 82.41,95.4 76.48,95.4 L76.48,95.4 Z" fill="#546E7A"/>
  <path d="M76.48,100.19 L76.48,100.19 C80.53,100.19 84.14,102.77 85.47,106.6 C86.3,109 86.14,111.58 85.03,113.86 C83.92,116.14 81.98,117.86 79.58,118.69 C78.57,119.04 77.53,119.21 76.48,119.21 C72.43,119.21 68.82,116.63 67.49,112.8 C66.66,110.4 66.82,107.82 67.93,105.54 C69.04,103.26 70.98,101.54 73.38,100.71 C74.39,100.36 75.43,100.19 76.48,100.19 M76.48,98.19 C75.23,98.19 73.97,98.39 72.72,98.82 C66.71,100.89 63.52,107.44 65.6,113.45 C67.24,118.21 71.7,121.21 76.48,121.21 C77.73,121.21 78.99,121.01 80.24,120.58 C86.25,118.51 89.44,111.96 87.36,105.95 C85.72,101.18 81.26,98.19 76.48,98.19 L76.48,98.19 Z" fill="#F44336"/>
  <path d="M86.57,111.2 L66.4,111.2 L66.4,108.2 L86.57,108.2 L86.57,111.2 Z" fill="#F44336"/>
  <path d="M72.739,100.21 L82.829,117.68 L80.231,119.18 L70.141,101.71 L72.739,100.21 Z" fill="#F44336"/>
  <path d="M70.141,117.68 L80.231,100.21 L82.829,101.71 L72.739,119.18 L70.141,117.68 Z" fill="#F44336"/>
  <path d="M119.58,89.56 L80.6,89.56 C79.15,89.56 77.97,88.38 77.97,86.93 L77.97,83.62 L122.2,83.62 L122.2,86.93 C122.21,88.38 121.03,89.56 119.58,89.56 Z" fill="#E2A610"/>
  <path d="M77.97,81.12 L122.21,81.12 Q123.71,81.12 123.71,82.62 Q123.71,84.12 122.21,84.12 L77.97,84.12 Q76.47,84.12 76.47,82.62 Q76.47,81.12 77.97,81.12 Z" fill="#FFCA28"/>
  <path d="M56.12,99.95 L34.17,99.95 Q32.67,99.95 32.67,98.45 Q32.67,96.95 34.17,96.95 L56.12,96.95 Q57.62,96.95 57.62,98.45 Q57.62,99.95 56.12,99.95 Z" fill="#E2A610"/>
  <path d="M111.14,111.2 L80.666,111.2 L52.698,98.944 Q52.011,98.643 51.818,98.149 Q51.625,97.655 51.926,96.968 Q52.528,95.594 53.902,96.196 L81.294,108.2 L111.14,108.2 Q112.64,108.2 112.64,109.7 Q112.64,111.2 111.14,111.2 Z" fill="#E2A610"/>
  <path d="M22.61,61.9 C22.61,61.9 19.75,66.12 19.75,75.73 C19.75,85.34 22.7,89.48 22.7,89.48 C22.7,89.48 23.51,86.98 23.51,77.18 C23.51,67.38 22.61,61.9 22.61,61.9 Z" fill="#616161"/>
  <path d="M17.47,73.25 L20.44,73.25 C20.44,73.25 20.82,73.5 20.82,75.69 C20.82,77.88 20.44,78.13 20.44,78.13 L17.47,78.13 L17.47,73.25 Z" fill="#424242"/>
  <path d="M18.73,75.69 C18.73,78.08 18.74,80.02 18.06,80.02 C17.38,80.02 16.27,78.08 16.27,75.69 C16.27,73.3 17.38,71.36 18.06,71.36 C18.74,71.36 18.73,73.3 18.73,75.69 Z" fill="#757575"/>
  <path d="M23.14,86.18 C22.92,88.23 22.69,89.48 22.69,89.48 L39.3,89.49 C39.3,89.49 39.47,88.43 39.62,86.35 C39.73,84.88 38.56,83.63 37.08,83.63 L25.98,83.63 C24.52,83.62 23.29,84.72 23.14,86.18 Z" fill="#212121"/>
  <path d="M33.13,92.36 L48.48,92.36 L48.48,105.58 L33.13,105.58 L33.13,92.36 Z" fill="#606060"/>
  <path d="M50.03,98.97 A1.55 6.61 0 1 1 46.93,98.97 A1.55 6.61 0 1 1 50.03,98.97 Z" fill="#606060"/>
  <path d="M34.68,98.97 A1.55 6.61 0 1 1 31.58,98.97 A1.55 6.61 0 1 1 34.68,98.97 Z" fill="#606060"/>
  <path d="M47.61,96.57 L33.88,96.57 C33.36,96.57 33,96.1 33.09,95.59 C33.24,94.73 33.39,94.1 33.87,93.71 C33.99,93.61 34.16,93.58 34.32,93.58 L47.23,93.58 C47.44,93.58 47.66,93.65 47.79,93.81 C48.24,94.32 48.4,94.84 48.41,95.64 C48.41,96.19 48.11,96.57 47.61,96.57 Z" fill="#78909C"/>
  <path d="M122.2,40.45 L77.99,40.45 L75.15,38.94 L125.04,38.94 Z" fill="#004D40"/>
  <path d="M75.15,35.18 L125.04,35.18 L125.04,38.94 L75.15,38.94 L75.15,35.18 Z" fill="#00796B"/>
  <path d="M109.19,69.54 Q109.19,70.38 108.546,70.952 Q107.952,71.48 107.13,71.48 L93.31,71.48 Q91.25,71.48 91.25,69.54 L91.25,52.117 L91.45,51.85 Q94.457,47.84 100.22,47.84 Q105.982,47.84 108.99,51.85 L109.19,52.117 Z M107.19,69.54 L107.19,52.794 Q104.789,49.84 100.22,49.84 Q95.651,49.84 93.25,52.794 L93.25,69.54 L93.31,69.48 L107.13,69.48 Z" fill="#C62828"/>
</svg>
